svg/emoji_u1f96d.svg

<?xml version="1.0" encoding="utf-8"?>
<!-- Generator: Adobe Illustrator 25.2.3, SVG Export Plug-In . SVG Version: 6.00 Build 0)  -->
<svg version="1.1" id="Layer_3" xmlns="http://www.w3.org/2000/svg" xmlns:xlink="http://www.w3.org/1999/xlink" x="0px" y="0px"
	 viewBox="0 0 128 128" style="enable-background:new 0 0 128 128;" xml:space="preserve">
<radialGradient id="SVGID_1_" cx="75.4235" cy="-61.6127" r="183.9634" gradientUnits="userSpaceOnUse">
	<stop  offset="0.5319" style="stop-color:#F33A1F"/>
	<stop  offset="0.6148" style="stop-color:#F86922"/>
	<stop  offset="0.6964" style="stop-color:#FD9124"/>
	<stop  offset="0.7387" style="stop-color:#FFA025"/>
	<stop  offset="0.7928" style="stop-color:#FCA025"/>
	<stop  offset="0.8393" style="stop-color:#F1A124"/>
	<stop  offset="0.883" style="stop-color:#DFA222"/>
	<stop  offset="0.9247" style="stop-color:#C7A41F"/>
	<stop  offset="0.9615" style="stop-color:#AAA61C"/>
</radialGradient>
<path style="fill:url(#SVGID_1_);" d="M4.03,89.43c-1.2,6.01,5.66,29.12,41.45,33.74c18.39,2.37,36.45-4.16,50.75-15.11
	S119.3,83,122.31,70.11c4.63-19.85-0.69-49.82-40.06-51.59C41.99,16.71,28.46,58.8,20.02,71.17C9.86,86.08,5.12,84,4.03,89.43z"/>
<path style="fill:#DC0D27;" d="M41.89,36.33c0,0,13.57,6.9,34.61,5.44c17.03-1.18,23.73-9.54,23.73-9.54s7.49,2.06,12.46,0.74
	c1.99-0.53,2.42-1.61-0.01-4.13c-3.67-3.82-16.27-10.89-34.85-9.7C54.58,20.65,41.89,36.33,41.89,36.33z"/>
<path style="fill:#FFEBC9;" d="M26.04,76.62c2.36,3.93,9.35-1.14,14.27-6.07c7.1-7.12,10.33-13.64,12.22-16.95
	c1.89-3.31,4.45-10.44-0.71-11.59c-5.37-1.19-6.96,5.45-9.72,10.34s-6.6,10.71-9.68,14.5C29.15,70.88,24.64,74.29,26.04,76.62z"/>
<path style="fill:#6D4C41;" d="M102.36,24.98c-0.68,2.97,2.05,5.05,3.94,6.54s6.15,2.05,7.57,1.02c1.42-1.02-0.16-4.02,0.87-5.83
	c1.02-1.81,2.84-4.02,0.63-5.52c-1.85-1.26-4.34-1.73-6.62-1.26s-2.29,2.21-3.23,2.68C104.56,23.09,102.59,23.96,102.36,24.98z"/>
<path style="fill:#518E30;" d="M100.14,25.88c-2.52,1.1-9.94,6.95-27.26,8.28c-19.1,1.47-41.53-0.8-45.27-1.33
	c-3.74-0.53-10.12-0.78-10.03-2.38c0.13-2.4,2.61-1.63,7.61-3.07c6.01-1.74,12.15-4.14,16.83-6.94C49.2,16.13,63.82,5.35,78.21,5.08
	c15.76-0.29,20.83,4.67,24.7,8.81s3.93,8.48,2.86,10.22C104.71,25.85,103.21,24.55,100.14,25.88z"/>
<path style="fill:#366918;" d="M50.46,24.92c0.37,0.46,7.35,0.72,11.24,0.59c8.88-0.29,15.91-2.65,24.66-3.63s16.38,0,16.67-0.34
	c0.53-0.62-4.84-7.92-22.41-5.95c-6.47,0.73-14.79,4.02-20.53,6.31C56.43,23.39,50.11,24.48,50.46,24.92z"/>
</svg>

<?xml version="1.0" encoding="UTF-8" standalone="no"?>
<!DOCTYPE svg PUBLIC "-//W3C//DTD SVG 1.1//EN" "http://www.w3.org/Graphics/SVG/1.1/DTD/svg11.dtd">
<svg width="100%" height="100%" viewBox="0 0 128 128" version="1.1" xmlns="http://www.w3.org/2000/svg" xmlns:xlink="http://www.w3.org/1999/xlink" xml:space="preserve" xmlns:serif="http://www.serif.com/" style="fill-rule:evenodd;clip-rule:evenodd;stroke-linejoin:round;stroke-miterlimit:2;">
    <path id="path16812" d="M4.03,89.43C2.83,95.44 9.69,118.55 45.48,123.17C63.87,125.54 81.93,119.01 96.23,108.06C110.53,97.11 119.3,83 122.31,70.11C126.94,50.26 121.62,20.29 82.25,18.52C41.99,16.71 28.46,58.8 20.02,71.17C9.86,86.08 5.12,84 4.03,89.43Z" style="fill:url(#_Radial1);fill-rule:nonzero;"/>
    <path id="path16816" d="M26.04,76.62C28.4,80.55 35.39,75.48 40.31,70.55C47.41,63.43 50.64,56.91 52.53,53.6C54.42,50.29 56.98,43.16 51.82,42.01C46.45,40.82 44.86,47.46 42.1,52.35C39.34,57.24 35.5,63.06 32.42,66.85C29.15,70.88 24.64,74.29 26.04,76.62Z" style="fill:rgb(255,224,178);fill-rule:nonzero;"/>
    <path id="path16818" d="M102.36,24.98C101.68,27.95 104.41,30.03 106.3,31.52C108.19,33.01 112.45,33.57 113.87,32.54C115.29,31.52 113.71,28.52 114.74,26.71C115.76,24.9 117.58,22.69 115.37,21.19C113.52,19.93 111.03,19.46 108.75,19.93C106.47,20.4 106.46,22.14 105.52,22.61C104.56,23.09 102.59,23.96 102.36,24.98Z" style="fill:rgb(109,74,65);fill-rule:nonzero;"/>
    <path id="path16820" d="M100.14,25.88C97.62,26.98 90.2,32.83 72.88,34.16C53.78,35.63 31.35,33.36 27.61,32.83C23.87,32.3 17.49,32.05 17.58,30.45C17.71,28.05 20.19,28.82 25.19,27.38C31.2,25.64 37.34,23.24 42.02,20.44C49.2,16.13 63.82,5.35 78.21,5.08C93.97,4.79 99.04,9.75 102.91,13.89C106.78,18.03 106.84,22.37 105.77,24.11C104.71,25.85 103.21,24.55 100.14,25.88Z" style="fill:rgb(91,140,49);fill-rule:nonzero;"/>
    <defs>
        <radialGradient id="_Radial1" cx="0" cy="0" r="1" gradientUnits="userSpaceOnUse" gradientTransform="matrix(183.963,0,0,183.963,75.4235,-61.6127)"><stop offset="0" style="stop-color:rgb(216,76,22);stop-opacity:1"/><stop offset="0.39" style="stop-color:rgb(216,76,22);stop-opacity:1"/><stop offset="0.93" style="stop-color:rgb(255,167,38);stop-opacity:1"/><stop offset="1" style="stop-color:rgb(255,202,39);stop-opacity:1"/></radialGradient>
    </defs>
</svg>
